public/zeska-logo.svg

<svg width="141" height="25" viewBox="0 0 141 25" fill="none" xmlns="http://www.w3.org/2000/svg">
<path d="M24.519 0.932998V2.154L6.732 18.225H24.123V24H0.33V22.779L18.15 6.708H1.485V0.932998H24.519ZM49.1017 18.225V24H29.4667V0.899998H49.1017V6.675H30.3577V11.988H46.3957V12.945H30.3577V18.225H49.1017ZM59.7266 2.022C61.5306 0.965999 63.7856 0.437998 66.4916 0.437998C69.6376 0.437998 72.2886 1.23 74.4446 2.814C76.6226 4.398 78.1076 6.686 78.8996 9.678L77.5136 9.942C76.2596 8.556 74.7746 7.599 73.0586 7.071C71.3426 6.521 69.4176 6.246 67.2836 6.246H65.5016C64.1376 6.246 62.6856 6.378 61.1456 6.642C59.6276 6.884 58.3296 7.28 57.2516 7.83C56.1736 8.38 55.6346 9.073 55.6346 9.909C55.6346 10.393 55.8656 10.778 56.3276 11.064C56.7896 11.35 57.5706 11.57 58.6706 11.724C59.7926 11.856 61.3436 11.922 63.3236 11.922H72.2666C73.8726 11.922 75.2696 12.153 76.4576 12.615C77.6676 13.055 78.2726 13.979 78.2726 15.387C78.2726 16.927 77.7996 18.401 76.8536 19.809C75.9076 21.217 74.5656 22.35 72.8276 23.208C71.1116 24.066 69.1426 24.495 66.9206 24.495C60.1666 24.495 55.9096 21.415 54.1496 15.255L55.5026 14.991C56.9106 16.377 58.3956 17.356 59.9576 17.928C61.5416 18.478 63.4776 18.753 65.7656 18.753H67.5476C68.9556 18.753 70.4076 18.61 71.9036 18.324C73.4216 18.038 74.6976 17.62 75.7316 17.07C76.7656 16.498 77.2826 15.816 77.2826 15.024C77.2826 14.342 76.8976 13.847 76.1276 13.539C75.3796 13.209 74.4226 13.011 73.2566 12.945C72.0906 12.857 70.4626 12.813 68.3726 12.813H61.0136C59.0776 12.813 57.5156 12.604 56.3276 12.186C55.1616 11.746 54.5786 10.866 54.5786 9.546C54.5786 8.424 54.9856 7.159 55.7996 5.751C56.6356 4.321 57.9446 3.078 59.7266 2.022ZM101.11 19.446C101.528 20.304 101.99 21.096 102.496 21.822C103.024 22.548 103.519 22.999 103.981 23.175C103.805 22.823 103.717 22.46 103.717 22.086C103.717 21.404 103.948 20.832 104.41 20.37C104.894 19.908 105.466 19.677 106.126 19.677C106.786 19.677 107.347 19.908 107.809 20.37C108.293 20.832 108.535 21.382 108.535 22.02C108.535 22.702 108.26 23.285 107.71 23.769C107.182 24.253 106.544 24.495 105.796 24.495C104.806 24.495 103.992 24.319 103.354 23.967C102.716 23.615 102.177 23.131 101.737 22.515C101.297 21.877 100.802 20.986 100.252 19.842L97.3479 13.836L89.9559 24H84.1809V0.899998H85.1379V21.36L100.054 0.899998H106.786L98.0079 12.978L101.11 19.446ZM123.487 0.899998H129.559L140.383 24H139.327L135.466 15.75H122.365L118.405 24H112.333L123.487 0.899998ZM128.998 2.022L122.827 14.793H135.004L128.998 2.022Z" fill="#151515"/>
</svg>

<svg xmlns="http://www.w3.org/2000/svg" fill="none" viewBox="0 0 141 25"><path d="M24.519.933v1.221L6.732 18.225h17.391V24H.33v-1.221L18.15 6.708H1.485V.933h23.034Zm24.583 17.292V24H29.467V.9h19.635v5.775H30.358v5.313h16.038v.957H30.358v5.28h18.744ZM59.727 2.022C61.53.966 63.786.438 66.492.438c3.146 0 5.797.792 7.953 2.376 2.178 1.584 3.663 3.872 4.455 6.864l-1.386.264c-1.254-1.386-2.74-2.343-4.455-2.871-1.716-.55-3.641-.825-5.775-.825h-1.782c-1.364 0-2.816.132-4.356.396-1.518.242-2.816.638-3.894 1.188-1.078.55-1.617 1.243-1.617 2.079 0 .484.23.869.693 1.155.462.286 1.243.506 2.343.66 1.122.132 2.673.198 4.653.198h8.943c1.606 0 3.003.231 4.19.693 1.21.44 1.816 1.364 1.816 2.772 0 1.54-.473 3.014-1.42 4.422-.945 1.408-2.287 2.541-4.025 3.399-1.716.858-3.685 1.287-5.907 1.287-6.754 0-11.011-3.08-12.771-9.24l1.353-.264c1.408 1.386 2.893 2.365 4.455 2.937 1.584.55 3.52.825 5.808.825h1.782c1.408 0 2.86-.143 4.356-.429 1.518-.286 2.794-.704 3.828-1.254 1.034-.572 1.55-1.254 1.55-2.046 0-.682-.384-1.177-1.154-1.485-.748-.33-1.705-.528-2.871-.594-1.166-.088-2.794-.132-4.884-.132h-7.36c-1.935 0-3.497-.209-4.685-.627-1.166-.44-1.75-1.32-1.75-2.64 0-1.122.408-2.387 1.222-3.795.836-1.43 2.145-2.673 3.927-3.729Zm41.383 17.424c.418.858.88 1.65 1.386 2.376.528.726 1.023 1.177 1.485 1.353a2.408 2.408 0 0 1-.264-1.089c0-.682.231-1.254.693-1.716a2.402 2.402 0 0 1 1.716-.693c.66 0 1.221.231 1.683.693.484.462.726 1.012.726 1.65 0 .682-.275 1.265-.825 1.749-.528.484-1.166.726-1.914.726-.99 0-1.804-.176-2.442-.528a4.85 4.85 0 0 1-1.617-1.452c-.44-.638-.935-1.529-1.485-2.673l-2.904-6.006L89.956 24H84.18V.9h.957v20.46L100.054.9h6.732l-8.778 12.078 3.102 6.468ZM123.487.9h6.072L140.383 24h-1.056l-3.861-8.25h-13.101l-3.96 8.25h-6.072L123.487.9Zm5.511 1.122-6.171 12.771h12.177l-6.006-12.771Z" fill="#151515"/></svg>
